public/svgs/regular/square-arrow-up-right.svg

<svg xmlns="http://www.w3.org/2000/svg" viewBox="0 0 448 512"><!-- Font Awesome Pro 6.0.0-alpha2 by @fontawesome - https://fontawesome.com License - https://fontawesome.com/license (Commercial License) --><path d="M312 144H156.719C143.469 144 132.719 154.75 132.719 168S143.469 192 156.719 192H254.062L119.031 327.031C109.656 336.406 109.656 351.594 119.031 360.969C123.719 365.656 129.844 368 136 368S148.281 365.656 152.969 360.969L288 225.938V323.281C288 336.531 298.75 347.281 312 347.281S336 336.531 336 323.281V168C336 154.75 325.25 144 312 144ZM384 32H64C28.654 32 0 60.656 0 96V416C0 451.344 28.654 480 64 480H384C419.346 480 448 451.344 448 416V96C448 60.656 419.346 32 384 32ZM400 416C400 424.82 392.822 432 384 432H64C55.178 432 48 424.82 48 416V96C48 87.18 55.178 80 64 80H384C392.822 80 400 87.18 400 96V416Z"/></svg>

<svg xmlns="http://www.w3.org/2000/svg" viewBox="0 0 448 512"><!--! Font Awesome Pro 6.5.1 by @fontawesome - https://fontawesome.com License - https://fontawesome.com/license (Commercial License) Copyright 2023 Fonticons, Inc. --><path d="M384 80c8.8 0 16 7.2 16 16V416c0 8.8-7.2 16-16 16H64c-8.8 0-16-7.2-16-16V96c0-8.8 7.2-16 16-16H384zm64 16c0-35.3-28.7-64-64-64H64C28.7 32 0 60.7 0 96V416c0 35.3 28.7 64 64 64H384c35.3 0 64-28.7 64-64V96zM160 144c-13.3 0-24 10.7-24 24s10.7 24 24 24h94.1L119 327c-9.4 9.4-9.4 24.6 0 33.9s24.6 9.4 33.9 0l135-135V328c0 13.3 10.7 24 24 24s24-10.7 24-24V168c0-13.3-10.7-24-24-24H160z"/></svg>
